X:0495
M:9/8
L:1/8
Q:3/8=120
K:D
g| f2d     (f/g/a).g fed| c2A     (c/d/e).e e2 \
g| f2d      f/g/ag   fed|Tc2A     (B/c/d).d d2
g| f2d     (f/g/a).g fed|Tc2A     (c/d/e).e e2 \
g| fdf      afa      bag| fed      ABc      d2|]

